icons/icn_x1.svg

<svg width="24" xmlns="http://www.w3.org/2000/svg" height="24" id="screenshot-07e9d773-d858-80af-8006-8f45d552cb09" viewBox="0 0 24 24" xmlns:xlink="http://www.w3.org/1999/xlink" fill="none" version="1.1"><g id="shape-07e9d773-d858-80af-8006-8f45d552cb09"><g class="frame-container-wrapper"><g class="frame-container-blur"><g class="frame-container-shadows"><g fill="none"><g class="fills" id="fills-07e9d773-d858-80af-8006-8f45d552cb09"><rect rx="0" ry="0" x="0" y="0" width="24" height="24.000000000000455" transform="matrix(1, 0, 0, 1, 0, 0)" class="frame-background"/></g><g class="frame-children"><g id="shape-07e9d773-d858-80af-8006-8f4607c2f566" rx="0" ry="0"><g id="shape-07e9d773-d858-80af-8006-8f45be761ab2" style="opacity: 1;"><g class="fills" id="fills-07e9d773-d858-80af-8006-8f45be761ab2"><path d="M3.56007981300354,7.8896484375C3.39235520362854,7.9158935546875,3.23708176612854,7.9952392578125,3.11720871925354,8.1160888671875C2.96681809425354,8.2664794921875,2.88185715675354,8.470458984375,2.88185715675354,8.6832275390625C2.88185715675354,8.8963623046875,2.96681809425354,9.1002197265625,3.11720871925354,9.2506103515625L6.366964340209961,12.4986572265625L3.11720871925354,15.74853515625C2.80617356300354,16.061279296875,2.80617356300354,16.5665283203125,3.11720871925354,16.8797607421875C3.26784348487854,17.0306396484375,3.47243332862854,17.115478515625,3.68556809425354,17.115478515625C3.89870285987854,17.115478515625,4.103780746459961,17.0306396484375,4.253927230834961,16.8797607421875L7.500265121459961,13.63134765625L10.750265121459961,16.8797607421875C11.063009262084961,17.1907958984375,11.567647933959961,17.1907958984375,11.880636215209961,16.8797607421875C12.191427230834961,16.5665283203125,12.191427230834961,16.061279296875,11.880636215209961,15.74853515625L8.632589340209961,12.4986572265625L11.880636215209961,9.2506103515625C12.031759262084961,9.1002197265625,12.115743637084961,8.8963623046875,12.115743637084961,8.6832275390625C12.115743637084961,8.470458984375,12.031759262084961,8.2664794921875,11.880636215209961,8.1160888671875C11.567647933959961,7.80517578125,11.063009262084961,7.80517578125,10.750265121459961,8.1160888671875L7.500265121459961,11.3660888671875L4.253927230834961,8.1160888671875C4.072286605834961,7.933349609375,3.81496262550354,7.849365234375,3.56007981300354,7.8896484375Z" style="display: inline; stroke-width: 0.424392; stroke-linecap: round; stroke-linejoin: bevel; fill: rgb(0, 0, 0); fill-opacity: 1;"/></g></g><g id="shape-07e9d773-d858-80af-8006-8f45be7660cb" style="opacity: 1;"><g class="fills" id="fills-07e9d773-d858-80af-8006-8f45be7660cb"><path d="M18.86647605895996,7.5205078125L18.86647605895996,17.031982421875L17.29787254333496,17.031982421875L17.29787254333496,9.382080078125L14.973653793334961,10.170166015625L14.973653793334961,8.8746337890625L18.67824363708496,7.5205078125Z" style="font-family: roboto; stroke-width: 1.73333; stroke-linejoin: round; font-weight: 500; white-space: pre; display: inline; font-size: 13.3333px; stroke-linecap: square; fill: rgb(0, 0, 0); fill-opacity: 1;"/></g></g></g></g></g></g></g></g></g></svg>

<svg fill="none" viewBox="0 0 24 24"><g class="frame-container-wrapper"><g class="frame-container-blur"><g class="frame-container-shadows"><g class="fills"><rect width="24" height="24" class="frame-background" rx="0" ry="0"/></g><g class="frame-children"><path fill="#000" d="M3.56 7.8896a.7978.7978 0 0 0-.4428.2265.8024.8024 0 0 0-.2353.5671c0 .2132.085.417.2353.5674l3.2498 3.248-3.2498 3.25a.8023.8023 0 0 0 0 1.1312.8034.8034 0 0 0 1.1367 0l3.2464-3.2485 3.25 3.2485a.8013.8013 0 0 0 1.1303 0c.3108-.3133.3108-.8185 0-1.1313l-3.248-3.2498 3.248-3.248a.799.799 0 0 0 .2351-.5675.7991.7991 0 0 0-.235-.5671.8015.8015 0 0 0-1.1304 0l-3.25 3.25-3.2464-3.25a.8005.8005 0 0 0-.6938-.2265Z" class="fills"/><path fill="#000" d="M18.8665 7.5205v9.5115h-1.5686v-7.65l-2.3242.7882V8.8746l3.7045-1.354Z" class="fills" font-family="roboto" font-size="13.3333" font-weight="500" style="white-space:pre"/></g></g></g></g></svg>
